X: 022
Q: "slow"
M: 3/4
L: 1/8
K: G
V: 1
|: G2 |
e3 g Te2 |{de} d2 e2 g2 |
b2 a2 (A>B) | {B}TA4 G>A |\
(B<d)(c<B)(TA<G) | D2 (d<c)(B<A) | TB2 (AG)(GA) | G4 :|
V: 2 clef=bass middle=d
z2 |\
g4 "7"d2 | g2 G2 g2 | c2 "6"c'2 ^c'2 | d'4 z2 |\
g4 g2 | "6"f4 f2 | g2 "6"c2 d2 | G4 :|\
|: z2 |
g6 | "6"f6 | "5"e2 "6;4;2"d2 c2 | "6"B2 G2 z2 |\
g6 | "6"f6 | e2 d2 c2 | "6"B2 G2 B2 |\
c2 C2 c2 | "6"B2 "5"A2 "6"G2 |
"6"c2 c'2 ^c'2 | d'4 z2 |\
g4 g2 | "6"f4 f2 | g2 "6"c2 d2 | G4 :|

